X:1
T:James Gibb editions
T:Lord, thy glory fills the heaven - Barnby
%%score [ ( 1 2 ) ( 3 4 ) ]
L:1/8
Q:1/4=80
M:4/4
K:Eb
V:1 treble nm="Midi_74"
V:2 treble 
V:3 bass nm="Midi_74"
V:4 bass 
V:1
"^Richard Mant\n(1776-1848)""^St Hilda (87. 87. D)""^Lord, thy glory fills the heaven""^Joseph Barnby\n(1838-96)" E2 E2 F2 G2 | %1
 c2 B2 B2 A2 || G2 F2 B2 G2 | E2 F2 G4 || E2 E2 F2 G2 | c2 B2 B2 A2 || c2 c2 c2 G2 | =A2 =B2 c4 || %8
[M:4/4] B2 =A2 c2 B2 | G2 E2 F2 E2 || A2 G2 F2 G2 | F2 c2 B4 || E2 E2 F2 G2 | c2 B2 B2 A2 || %14
 c2 c2 e2 B2 | G3 F E4 || A4 G4 |] %17
V:2
 E2 E2 E2 E2 | E2 _D2 D2 C2 || =D2 D2 E2 E2 | E2 C2 D4 || E2 E2 D2 E2 | E2 E2 E2 E2 || %6
 E2 F2 G2 G2 | F2 F2 E4 ||[M:4/4] G2 ^F2 G2 G2 | _D2 D2 C2 C2 || E2 E2 E2 E2 | E2 E2 D4 || %12
 E2 E2 D2 E2 | _D2 D2 D2 C2 || C2 E2 E2 E2 | D3 D E4 || E4 E4 |] %17
V:3
 G,2 G,2 A,2 B,2 | E,2 G,2 G,2 A,2 || B,2 B,2 B,2 B,2 | C2 C2 =B,4 || C2 G,2 B,2 B,2 | %5
 E2 _D2 D2 C2 || C2 D2 E2 E2 | D2 D2 C4 || %8
[M:4/4]"^1 Round the Lord in glory seated, \ncherubim and seraphim\nfilled his temple, and repeated\neach to each th'alternate hymn:\n\"Lord, Thy glory fills the heaven,\nearth is with its fullness stored;\nunto Thee be glory given,\nHoly, holy, holy, Lord.\"\n\n2 Heav'n is still with glory ringing;\nearth takes up the angels' cry,\n\"Holy, holy, holy,\" singing,\n\"Lord of hosts, the Lord Most High!\"\n\"Lord, Thy glory fills the heaven,\nearth is with its fullness stored;\nunto Thee be glory given,\nHoly, holy, holy, Lord.\"" _D2 C2 D2 D2 | %9
 B,2 G,2 A,2 A,2 || C2 B,2 =A,2 B,2 | C2 =A,2 (B,2 _A,2) || %12
"^3 With His seraph-train before Him,\nWith His holy Church below,\nthus conspire we to adore Him,\nbid we thus our anthem flow: \n\"Lord, Thy glory fills the heaven,\nearth is with its fullness stored;\nunto Thee be glory given,\nHoly, holy, holy, Lord.\"\n\n4 Thus Thy glorious name confessing,\nwith Thine angel hosts we cry,\n\"Holy, holy, holy,\" blessing\nThee, the Lord of Hosts Most High.\n\"Lord, Thy glory fills the heaven,\nearth is with its fullness stored;\nunto Thee be glory given,\nHoly, holy, holy, Lord.\"" G,2 G,2 B,2 B,2 | %13
 A,2 G,2 G,2 A,2 || E,2 F,2 G,2 G,2 | A,3 A, G,4 || C4 B,4 |] %17
V:4
 E,2 E,2 E,2 E,2 | E,2 E,2 A,,2 A,,2 || A,2 A,2 G,2 E,2 | C,2 A,,2 G,,4 || C,2 C,2 B,,2 E,2 | %5
 E,2 E,2 A,,2 A,,2 || A,2 A,2 G,2 G,2 | G,2 G,2 C,4 ||[M:4/4] E,2 E,2 E,2 E,2 | %9
 E,2 E,2 A,,2 A,,2 || A,,2 B,,2 C,2 B,,2 | =A,,2 F,,2 B,,4 || C,2 C,2 B,,2- E,2 | %13
 E,2 E,2 A,,2 A,,2 || A,,2 =A,,2 B,,2 B,,2 | B,,3 B,, E,4 || A,,4 E,4 |] %17

